!!!OTL: DA KOMMT JA DER LIEBLICHE MAI
!!!ARE: Europa, Mitteleuropa, Deutschland
!!!SCT: F0250
!!!YEM: Copyright 1995, estate of Helmut Schaffrath.
**kern
*ICvox
*Ivox
*M6/8
*k[f#]
*G:
{8d
=1
8b
8b
8b
8a
8a
8a
=2
4.cc}
{4.b
=3
8a
8a
8b
8cc
8a
8f#
=4
4.g
4r}
{16f#
16g
=5
8a
8a
8a
8b
8a}
{16f#
16g
=6
8a
8a
8a
8b
8a}
{8b
=7
4.b
4g
8b
=8
8dd
8b
8g
4d}
{8dd
=9
4b
8dd
4b
8dd
=10
4b
4.r}
{8b
=11
8b
8b
8b
8b
8cc
8dd
=12
4ee
8r}
{4.ee
=13
8.dd
16b
8g
8cc
8a
8f#
=14
4g
4.r}
==
!!!AGN: Jugend - Lied, Jahreszeiten, Fruehling
!!!ONB: ESAC (Essen Associative Code) Database: FINK
!!!AMT: compound duple
!!!AIN: vox
!!!EED: Helmut Schaffrath
!!!EEV: 1.0
*-
